X:1
T:Victory [2]
L:1/8
M:2/2
I:linebreak $
K:G
V:1 treble 
V:1
 GBdg edcB | Aaag aABA | GBdg egdB |1 cAdc BGAF :|2 cAdc Bdfa ||$ g3 a bgag | efga bggf | %7
 g3 a bgag | efga bggf | g3 a bgag |$ efga bgaf | gbag fagf | edef gedB || %13
